!!!!SEGMENT: pl-kk--kk-i-6--025-004_sabino-ippolito--missa-brevis-sanctus.krn
!!!cenid: 16xx:987
!!!COM: Sabino, Ippolito
!!!COM-rismID: pe30011894
!!!CDT: ~1550-1593
!!!CNT: Italian
!!!OPR: Missa brevis
!!!OTL: Sanctus
!!!OMV: 004
!!!PDT:
!!!AGN: Sacred; Mass
!!!SMS-siglum: PL-Kk
!!!SMS-shelfmark: Kk.I.6
!!!SMS-shelfwork: 025-004 M
!!!SMS-variant:
!!!SMS-altvar:
!!!NIFC-rismSourceID: 1001135985
!!!NIFC-islandoraID: pl-kk:1634
!!!URL-pdf-islandora: https://repozytorium.nifc.pl/islandora/object/pl-kk%3A1634/datastream/PDF/view
!!!URL-scan: https://polish.musicsources.pl/pl/lokalizacje/galeria/rekopisy/6133 @EN{Scan on Polish Music Herritage in Open Access Website} @PL{Skany w portalu Dziedzictwo Muzyki Polskiej w otwartym dostępie}
!!!ONB-nifc: UWAGA: C (skan 0023-0027, s. 42-51), T (skan 0126-0131, s. 56-66), B (skan 0237-0241, s. 56-65) Części Mszy: 1 Kyrie, 2. Et in terra, 3. Patrem, 4. Sanctus, 5. Agnus Dei
!!!AIN: 1 empty 1 tenor 1 vox
!!!key:
**kern	**text	**kern	**text	**kern	**text
*part3	*part3	*part2	*part2	*part1	*part1
*staff3	*staff3	*staff2	*staff2	*staff1	*staff1
*Iempty	*	*Itenor	*	*Ivox	*
*I"Baſsus.	*	*I"Tenor.	*	*I"Cantus.	*
*I'B	*	*I'T	*	*I'S	*
*clefF4	*	*clefC4	*	*clefC4	*
*k[b-]	*	*k[b-]	*	*k[b-]	*
*F:	*	*F:	*	*F:	*
*M2/1	*	*M2/1	*	*M2/1	*
*met(C|)	*	*met(C|)	*	*met(C|)	*
=1-	=1-	=1-	=1-	=1-	=1-
!LO:TX:a:t=3	!	!	!	!	!
*	*	*	*	*lig	*
0r	.	0rA	.	1G	SAn-
*	*	*	*	*col	*
!	!	!	!	!LO:N:vis=1	!
.	.	.	.	2.A\	.
*	*	*	*	*Xlig	*
.	.	.	.	8G/L	.
!	!	!	!	!LO:TX:t=P:problem=kreska pseudotaktowa	!
.	.	.	.	8A/J	.
*	*	*	*	*Xcol	*
=2-	=2-	=2-	=2-	=2-	=2-
!	!	!	!	!LO:TX:t=P:problem=♯ below	!
!	!	!	!	!LO:N:acc=#	!
!	!	!	!	!LO:TX:t=P:problem=4\left or middle&colon; global	!
1r	.	1.G	SAn-	4Bn\	.
.	.	.	.	4c\	.
.	.	.	.	4d\	.
!	!	!	!	!LO:TX:t=P:problem=kreska pseudotaktowa	!
!	!	!	!	!LO:TX:t=P:problem=♯ above	!
!	!	!	!	!LO:N:acc=#	!
.	.	.	.	4Bn\	.
*lig	*	*	*	*	*
1C	SAn-	.	.	4c\	.
.	.	.	.	4B-y\	.
.	.	2.A/	.	4A/	.
!	!	!	!	!LO:TX:t=P:problem=kreska pseudotaktowa	!
.	.	.	.	4G/	.
=3-	=3-	=3-	=3-	=3-	=3-
!	!	!	!	!LO:TX:t=P:problem=kreska pseudotaktowa	!
1D	.	.	.	1F	.
.	.	4G/	.	.	.
.	.	4A/	.	.	.
!	!	!LO:TX:t=P:problem=4\left or middle&colon; global	!	!	!
.	.	4B-\	.	.	.
*Xlig	*	*	*	*	*
!LO:TX:t=P:problem=2\middle or right&colon; global	!	!LO:TX:t=P:problem=2\middle or right&colon; global	!	!	!
2E\	-ctus	2.c\	.	2G/	-ctus
1F\	.	.	.	2.A/	San-
.	.	4B-\	.	.	.
=4-	=4-	=4-	=4-	=4-	=4-
.	.	2A/	.	.	.
*	*	*	*	*custos:c	*
.	.	.	.	4B-\	.
!	!	!	!	!LO:LB:g=original	!
!	!	!	!	!LO:TX:t=P:problem=2\middle or right&colon; global	!
2E\	San-	2G/	.	2.c\	.
1D	.	1F	-ctus	.	.
.	.	.	.	8B-\L	.
.	.	.	.	8A\J	.
!	!	!	!	!LO:TX:t=P:problem=kreska pseudotaktowa	!
.	.	.	.	2B-\	.
=5-	=5-	=5-	=5-	=5-	=5-
*	*	*	*ij	*	*
!	!	!	!	!LO:TX:t=P:global:problem=przecinek oddechowy jako rozdzielacz słów	!
2C/	-ctus	2G/	SAn-	1c,	-ctus
4FF/	San-	1A	.	.	.
4GG/	.	.	.	.	.
4AA/	.	.	.	1.c	San-
4BB-/	.	.	.	.	.
2C/	.	4G/	.	.	.
*	*	*custos:G	*	*	*
.	.	4F/	.	.	.
!	!	!LO:LB:g=original	!	!	!
=6-	=6-	=6-	=6-	=6-	=6-
1GG	-ctus	2.G/	.	.	.
.	.	.	.	2B-\	.
.	.	4F/	.	.	.
*	*	*	*	*lig	*
2.AA/	San-	2E/	.	1A	.
.	.	2.F/	.	.	.
*custos:C	*	*	*	*	*
4BB-/	.	.	.	.	.
!LO:LB:g=original	!	!	!	!	!
=7-	=7-	=7-	=7-	=7-	=7-
1C	.	.	.	1G	.
.	.	8E/L	.	.	.
.	.	8D/J	.	.	.
.	.	2E/	.	.	.
*	*	*	*	*Xlig	*
1FF	-ctus	2F/	-ctus	1A	-ctus
*	*	*	*Xij	*	*
.	.	2.C/	Do-	.	.
=8-	=8-	=8-	=8-	=8-	=8-
2rGG	.	.	.	1rA	.
.	.	4C/	-mi-	.	.
2.FF/	D(o-	2C/	-nus	.	.
.	.	2.F/	De-	2rF	.
4FF/	-mi)-	.	.	.	.
2FF/	-nus	.	.	2.F/	Do-
.	.	4E/	.	.	.
=9-	=9-	=9-	=9-	=9-	=9-
2BB-/	De-	2D/	.	.	.
.	.	.	.	4F/	-mi-
!	!	!	!	!LO:TX:t=P:problem=kreska pseudotaktowa	!
2AA/	-us	2C/	-us	2F/	-nus
2.GG/	Sab-	2D/	Sab-	1.B-	De-
.	.	2E/	-ba-	.	.
4GG/	-ba-	.	.	.	.
=10-	=10-	=10-	=10-	=10-	=10-
2FF/	-oth	1F	-oth	.	.
1F	De-	.	.	4A/	.
.	.	.	.	4G/	.
.	.	2r	.	2A/	.
*	*	*	*	*custos:F	*
!	!	!	!	!LO:TX:t=P:problem=kreska pseudotaktowa	!
2E\	-us	1c\	Sab-	2G/	-us
!	!	!	!	!LO:LB:g=original	!
=11-	=11-	=11-	=11-	=11-	=11-
2.D/	Sab-	.	.	2.F/	Sab-
*	*	*custos:c	*	*	*
.	.	2B-\	-va-	.	.
4D/	-ba-	.	.	4F/	-ba-
!	!	!LO:LB:g=original	!	!	!
0C	-oth	2c\	-oth	1G	-oth
.	.	2.G/	D(o-	.	.
=12-	=12-	=12-	=12-	=12-	=12-
.	.	.	.	2rF	.
.	.	4G/	-mi)-	.	.
.	.	2G/	-nus	2.C/	D(o-
1rBB	.	1.c	De-	.	.
.	.	.	.	4C/	-mi)-
!	!	!	!	!LO:TX:t=P:problem=kreska pseudotaktowa	!
.	.	.	.	2C/	-nus
=13-	=13-	=13-	=13-	=13-	=13-
*custos:GG	*	*	*	*	*
2rGG	.	.	.	0G	De-
!	!	!LO:TX:t=P:problem=♯ below	!	!	!
!	!	!LO:N:acc=#	!	!	!
!LO:LB:g=original	!	!	!	!	!
2.GG/	D(o-	4Bn\	.	.	.
.	.	4A/	.	.	.
!	!	!LO:TX:t=P:problem=♯ below	!	!	!
!	!	!LO:N:acc=#	!	!	!
.	.	1Bn	.	.	.
4GG/	-mi)-	.	.	.	.
2GG/	-nus	.	.	.	.
=14-	=14-	=14-	=14-	=14-	=14-
1.C	De-	2c\	-us	2G/	-us
.	.	4C/	Sab-	1E	Sab-
.	.	4D/	.	.	.
.	.	4E/	.	.	.
.	.	4F/	.	.	.
!	!	!	!	!LO:TX:t=P:problem=kreska pseudotaktowa	!
2BB-/	-us	1G/	.	2D/	-ba-
=15-	=15-	=15-	=15-	=15-	=15-
2.AA/	Sab-	.	.	2E/	-oth
*	*	*	*	*	*ij
.	.	2F/	-ba-	2C/	Sab-
4AA/	-ba-	.	.	.	.
1GG	-oth	1G	-oth	2.D/	-ba-
!	!	!	!	!LO:TX:t=P:problem=kreska pseudotaktowa	!
.	.	.	.	4E/	.
=16-	=16-	=16-	=16-	=16-	=16-
4FF/	Sab-	1.c	Sab-	2F/	-oth
*	*	*	*	*	*Xij
4GG/	.	.	.	.	.
4AA/	.	.	.	1F	Sab-
4BB-/	.	.	.	.	.
2.C/	.	.	.	.	.
*	*	*	*	*custos:F	*
.	.	2c\	-ba-	2E/	-ba-
4C/	ba-	.	.	.	.
!	!	!	!	!LO:PB:g=original	!
=17-	=17-	=17-	=17-	=17-	=17-
!	!	!LO:TX:t=P:global:problem=przecinek oddechowy jako rozdzielacz słów	!	!	!
1FF	-oth	1A,<	-oth	1F	-oth
00r	.	1A	Ple-	1F	Ple-
=18-	=18-	=18-	=18-	=18-	=18-
*	*	*custos:c	*	*	*
!	!	!LO:TX:t=P:problem=♯ below	!	!	!
!	!	!LO:N:acc=#	!	!LO:TX:t=P:problem=kreska pseudotaktowa	!
.	.	1Bn	-ni	1G	-ni
!	!	!LO:LB:g=original	!	!	!
.	.	2c\	ſunt	2A/	ſunt
.	.	1d\	Cae-	1B-\	Cae-
=19-	=19-	=19-	=19-	=19-	=19-
.	.	.	.	.	.
.	.	4c\	.	4A/	.
!	!	!	!	!LO:TX:t=P:problem=kreska pseudotaktowa	!
.	.	4B-y\	.	4G/	.
0rBB	.	2c\	.	2A/	.
.	.	1d\	-li	1B-\	-li
=20-	=20-	=20-	=20-	=20-	=20-
.	.	.	.	.	.
!	!	!	!	!LO:TX:t=P:problem=kreska pseudotaktowa	!
.	.	2c\	et	2A/	et
1C	Ple-	2.c\	ter-	1G	ter-
.	.	4B-\	.	.	.
=21-	=21-	=21-	=21-	=21-	=21-
*custos:E	*	*	*	*	*
1D	-ni	4A/	.	2F,</	-ra
.	.	4G/	.	.	.
*	*	*	*	*	*ij
!	!	!	!	!LO:TX:t=P:problem=kreska pseudotaktowa	!
.	.	4A/	.	2F/	Ple-
.	.	4B-\	.	.	.
!LO:LB:g=original	!	!	!	!	!
2E\	ſunt	1c	.	2G/	-ni
1F\	Cae-	.	.	2A/	ſunt
=22-	=22-	=22-	=22-	=22-	=22-
.	.	1.C	-ra	2.G/	Cae-
!LO:TX:t=P:problem=4\left or middle&colon; global	!	!	!	!	!
4E\	.	.	.	.	.
4D/	.	.	.	4F/	.
2E\	.	.	.	2G/	-li
1F\	-li	4F/	et	1A\	et
.	.	4G/	.	.	.
=23-	=23-	=23-	=23-	=23-	=23-
.	.	4A/	.	.	.
.	.	4B-\	.	.	.
*	*	*	*	*custos:F	*
!	!	!	!	!LO:TX:t=P:problem=kreska pseudotaktowa	!
!LO:TX:t=P:global:problem=przecinek oddechowy rozdzielacz słów	!	!	!	!	!
2E,<\	et	2c\	.	2G/	.
!	!	!	!	!LO:LB:g=original	!
2.D/	ter-	2B-\	ter-	0F	ter-
*	*	*custos:B	*	*	*
.	.	2A/	.	.	.
4C/	.	.	.	.	.
!	!	!LO:LB:g=original	!	!	!
=24-	=24-	=24-	=24-	=24-	=24-
1BB-	.	1B-	.	.	.
2FF/	-ra	2A,</	-ra	1F	-ra
*	*	*	*	*	*Xij
1F\	glo-	1A\	glo-	.	.
=25-	=25-	=25-	=25-	=25-	=25-
.	.	.	.	2r	.
2E\	-ri-	2G/	-ri-	1c	glo-
2F\	-a	2A/	-a	.	.
!	!	!	!	!LO:TX:t=P:problem=kreska pseudotaktowa	!
2D/	tu-	2F/	tu-	2B-\	-ri-
=26-	=26-	=26-	=26-	=26-	=26-
1C	-a	2G,</	-a	2.c\	-a
*	*	*	*ij	*	*
.	.	1c	glo-	.	.
.	.	.	.	4B-\	.
2FF/	glo-	.	.	2A/	.
!	!	!LO:TX:t=P:problem=♯ below	!	!	!
!	!	!LO:N:acc=#	!	!LO:TX:t=P:problem=kreska pseudotaktowa	!
2GG/	-ri-	2Bn\	ri-	2G/	.
=27-	=27-	=27-	=27-	=27-	=27-
2AA/	-a	2c\	-a	2E/	tu-
*custos:C	*	*	*	*	*
2FF/	tu-	2A/	tu-	1F	-a
!LO:LB:g=original	!	!	!	!	!
2C/	-a	1G	-a	.	.
*	*	*	*Xij	*	*
1C/	glo-	.	.	4E/	glo-
!	!	!	!	!LO:TX:t=P:problem=kreska pseudotaktowa	!
.	.	.	.	4D/	.
=28-	=28-	=28-	=28-	=28-	=28-
.	.	1.G	glo-	2E/	.
!LO:TX:t=P:problem=♯ below	!	!	!	!	!
!LO:N:acc=#	!	!	!	!	!
2BBn/	-ri-	.	.	2D/	-ri-
2C/	-a	.	.	2E/	-a
2AA/	tu-	2F/	-ri-	2C/	tu-
=29-	=29-	=29-	=29-	=29-	=29-
!	!	!	!	!LO:TX:t=P:problem=kreska pseudotaktowa	!
1GG	-a	2G/	-a	1D	-a
.	.	2G/	tu-	.	.
2rGG	.	2C,</	-a	2rF	.
*	*ij	*	*ij	*	*
1FF/	glo-	1F/	glo-	1A\	glo-
=30-	=30-	=30-	=30-	=30-	=30-
.	.	.	.	.	.
*	*	*	*	*custos:A	*
2C/	-ri-	2E/	-ri-	2G/	-ri-
!	!	!	!	!LO:LB:g=original	!
2FF/	-a	2F/	-a	2A/	-a
*	*	*custos:G	*	*	*
2FF/	tu-	2A/	tu-	2F/	tu-
!	!	!LO:LB:g=original	!	!	!
=31-	=31-	=31-	=31-	=31-	=31-
1C	-a	1G,<	-a	1E	-a
*	*Xij	*	*Xij	*	*
0rBB	.	1G	O-	0rF	.
=32-	=32-	=32-	=32-	=32-	=32-
.	.	2A/	-san-	.	.
!	!	!LO:TX:t=P:problem=♯ below	!	!	!
!	!	!LO:N:acc=#	!	!	!
.	.	2Bn\	-na	.	.
1rD	.	2c\	in	1C	O-
.	.	2A/	ex-	.	.
=33-	=33-	=33-	=33-	=33-	=33-
1GG	O-	1B-y	-cel-	2D/	-san-
!	!	!	!	!LO:TX:t=P:problem=kreska pseudotaktowa	!
.	.	.	.	2E/	-na
2AA/	-san-	2A,</	-ſis	2F/	in
!LO:TX:t=P:problem=♯ below	!	!	!	!	!
!LO:N:acc=#	!	!	!	!LO:TX:t=P:problem=kreska pseudotaktowa	!
2BBn/	-na	2G/	O-	2D/	ex-
=34-	=34-	=34-	=34-	=34-	=34-
2C/	in	2G/	-san-	1E	-cel-
*custos:BB	*	*	*	*	*
2AA/	ex-	2A/	-na	.	.
!LO:LB:g=original	!	!	!	!	!
2.BB-y/	-cel-	2G/	in	1D	-sis
.	.	1F/	ex-	.	.
4AA/	.	.	.	.	.
=35-	=35-	=35-	=35-	=35-	=35-
1GG	.	.	.	1rA	.
.	.	2E,</	-cel-	.	.
1FF	-ſis	2F/	-ſis	2rF	.
*	*	*	*ij	*	*ij
!	!	!	!	!LO:TX:t=P:problem=kreska pseudotaktowa	!
.	.	2c\	O-	2F/	O-
=36-	=36-	=36-	=36-	=36-	=36-
!	!	!LO:TX:t=P:problem=♯ below	!	!	!
!	!	!LO:N:acc=#	!	!	!
2rBB	.	2Bn\	-san-	2G/	-san-
2C/	O-	2c\	-na	2A/	-na
2D/	-san-	2F/	in	2B-\	in
*	*	*custos:c	*	*	*
!	!	!	!	!LO:TX:t=P:problem=kreska pseudotaktowa	!
2E\	-na	2c\	ex-	2G/	ex-
!	!	!LO:LB:g=original	!	!	!
=37-	=37-	=37-	=37-	=37-	=37-
1.F	in	2.c\	-cel-	2.A/	-cel-
*	*	*	*	*custos:A	*
.	.	4B-y\	.	4G/	.
!	!	!	!	!LO:LB:g=original	!
.	.	2A/	.	4A/	.
.	.	.	.	4B-\	.
2E\	ex-	2G/	-ſis	2.c\	.
*	*	*	*Xij	*	*
=38-	=38-	=38-	=38-	=38-	=38-
1D	-cel-	1F	in	.	.
.	.	.	.	8B-\L	.
.	.	.	.	8A\J	.
!	!	!	!	!LO:TX:t=P:problem=kreska pseudotaktowa	!
.	.	.	.	2B-\	.
1C	-sis	1G	ex-	2c\	sis
*	*	*	*	*	*Xij
.	.	.	.	2G/	O-
=39-	=39-	=39-	=39-	=39-	=39-
!	!	!	!	!LO:TX:t=P:problem=kreska pseudotaktowa	!
2rGG	.	2.F/	-cel-	1A	-ſan-
*	*ij	*	*	*	*
2FF/	O-	.	.	.	.
.	.	4E/	.	.	.
2GG/	-san-	1D	.	1G	-na
2GG/	-na	.	.	.	.
=40-	=40-	=40-	=40-	=40-	=40-
2AA/	in	2C/	ſis	2E/	in
*	*	*	*ij	*	*
2FF/	ex-	1F	in	1A	ex-
2.C/	-cel-	.	.	.	.
.	.	4E/	ex-	2G/	.
4BB-/	.	4D/	.	.	.
=41-	=41-	=41-	=41-	=41-	=41-
2.AA/	.	2E/	.	0.A	-cel-
.	.	2E/	-cel-	.	.
4GG/	.	.	.	.	.
0FF	.	2F/	.	.	.
.	.	2C/	.	.	.
=42-	=42-	=42-	=42-	=42-	=42-
.	.	1F	.	.	.
1C;;l	-sis	1E;;l	-ſis	1G;;l	-sis.
*	*Xij	*	*Xij	*	*
!	!	!LO:PB:g=original	!	!	!
=43-	=43-	=43-	=43-	=43-	=43-
*M2/1	*	*M2/1	*	*M2/1	*
*met(C|)	*	*met(C|)	*	*met(C|)	*
*^	*	*	*	*	*
!LO:TX:t=P:problem=partia Cantus. zapisana pomocniczo	!	!	!	!	!	!
1rF	1GG	.	00r	.	1G	Be-
2rD	2C\	.	.	.	1.c	-ne-
2C/	2ryy	Be-	.	.	.	.
*v	*v	*	*	*	*	*
=44-	=44-	=44-	=44-	=44-	=44-
1.F	-ne-	.	.	.	.
!	!	!	!	!LO:TX:t=P:problem=kreska pseudotaktowa	!
.	.	.	.	2B-\	-di-
.	.	.	.	2A/	-ctus
2E\	-di-	.	.	2G/	.
=45-	=45-	=45-	=45-	=45-	=45-
2D/	-ctus	0rA	.	4A/	qui
.	.	.	.	4B-\	.
2C/	qui	.	.	2.c\	Ve-
1D	Ve-	.	.	.	.
.	.	.	.	8B-\L	.
.	.	.	.	8A\J	.
!	!	!	!	!LO:TX:t=P:problem=kreska pseudotaktowa	!
.	.	.	.	2B-\	.
=46-	=46-	=46-	=46-	=46-	=46-
1C	-nit	1rA	.	2c\	-nit
*	*	*	*	*	*ij
.	.	.	.	1G	Be-
1rD	.	2rF	.	.	.
.	.	2C/	Be-	1c\	-ne-
=47-	=47-	=47-	=47-	=47-	=47-
1GG	Be-	1.G	-ne-	.	.
*	*	*	*	*custos:c	*
!	!	!	!	!LO:TX:t=P:problem=kreska pseudotaktowa	!
.	.	.	.	2B-\	-di-
!	!	!	!	!LO:LB:g=original	!
1.C	-ne-	.	.	2c\	-ctus
.	.	2F/	-di-	2A/	qui
=48-	=48-	=48-	=48-	=48-	=48-
.	.	2E/	-ctus	1G	Ve-
2BB-/	-di-	2D/	qui	.	.
2AA/	-ctus	4E/	Ve-	2C,</	-nit
*	*	*	*	*	*Xij
.	.	4F/	.	.	.
!	!	!	!	!LO:TX:t=P:problem=kreska pseudotaktowa	!
2GG/	qui	2.G/	.	2D/	qui
=49-	=49-	=49-	=49-	=49-	=49-
1AA	Ve-	.	.	2.C/	Ve-
.	.	8F/L	.	.	.
.	.	8E/J	.	.	.
.	.	2F/	.	.	.
.	.	.	.	4D/	.
*custos:C	*	*	*	*	*
1GG	-nit	2G/	-nit	4E/	.
.	.	.	.	8D/L	.
.	.	.	.	8C/J	.
.	.	2G/	qui	4D/	.
!	!	!	!	!LO:TX:t=P:problem=kreska pseudotaktowa	!
.	.	.	.	4E/	.
!LO:LB:g=original	!	!	!	!	!
=50-	=50-	=50-	=50-	=50-	=50-
2rBB	.	0.c	Ve-	2F/	.
!	!	!	!	!LO:TX:t=P:problem=kreska pseudotaktowa	!
2C/	qui	.	.	2E/	-nit
4FF/	Ve-	.	.	2F/	qui
4GG/	.	.	.	.	.
4AA/	.	.	.	2.F/	Ve-
4BB-/	.	.	.	.	.
=51-	=51-	=51-	=51-	=51-	=51-
1C	.	.	.	.	.
.	.	.	.	8E/L	.
.	.	.	.	8D/J	.
*	*	*	*	*custos:F	*
!	!	!	!	!LO:TX:t=P:problem=kreska pseudotaktowa	!
.	.	.	.	2E/	.
!	!	!	!	!LO:PB:g=original	!
1FF	-nit	0c	-nit	2F/	-nit
!	!	!	!	!LO:TX:t=P:problem=kreska pseudotaktowa	!
.	.	.	.	2C/	in
=52-	=52-	=52-	=52-	=52-	=52-
*	*	*custos:F	*	*	*
2rGG	.	.	.	2.F/	no-
2FF/	in	.	.	.	.
.	.	.	.	4E/	-mi-
!	!	!	!	!LO:TX:t=P:problem=kreska pseudotaktowa	!
!	!	!LO:LB:g=original	!	!	!
2.BB-/	No-	0r	.	1D	-ne
4AA/	-mi-	.	.	.	.
=53-	=53-	=53-	=53-	=53-	=53-
2GG/	-ne	.	.	2.G/	Do-
2.BB-/	Do-	.	.	.	.
.	.	.	.	8F/L	.
!	!	!	!	!LO:TX:t=P:problem=kreska pseudotaktowa	!
.	.	.	.	8E/J	.
.	.	1F	in	4D/	.
4AA/	.	.	.	4E/	.
4AA/	.	.	.	1F/	.
8GG/L	.	.	.	.	.
8FF/J	.	.	.	.	.
=54-	=54-	=54-	=54-	=54-	=54-
2.GG/	.	1.B-	no-	.	.
!	!	!	!	!LO:TX:t=P:problem=kreska pseudotaktowa	!
.	.	.	.	2E/	-mi-
4GG/	mi-	.	.	.	.
1FF	-ni	.	.	2F/	-ni
.	.	2A/	-mi-	1c\	Do-
=55-	=55-	=55-	=55-	=55-	=55-
*custos:E	*	*	*	*	*
0C	in	2G/	-ne	.	.
*	*	*	*ij	*	*
.	.	2G/	in	2c\	-mi-
!	!	!	!	!LO:TX:t=P:problem=kreska pseudotaktowa	!
.	.	2.c\	no-	1G	-ni
.	.	4B-\	mi-	.	.
!LO:LB:g=original	!	!	!	!	!
=56-	=56-	=56-	=56-	=56-	=56-
2.F\	no-	1A	-ne	2r	.
*	*	*	*Xij	*	*
.	.	.	.	2c\	in
4E\	-mi-	.	.	.	.
2D/	-ne	2.d\	Do-	2B-\	No-
2.F\	Do-	.	.	4A/	.
*	*	*	*	*custos:A	*
.	.	8c\L	.	4G/	.
.	.	8B-\J	.	.	.
!	!	!	!	!LO:LB:g=original	!
=57-	=57-	=57-	=57-	=57-	=57-
.	.	4A/	.	2A/	.
!	!	!LO:TX:t=P:problem=♯ below	!	!	!
!	!	!LO:N:acc=#	!	!	!
4E\	.	4Bn\	.	.	.
!	!	!	!	!LO:TX:t=P:problem=kreska pseudotaktowa	!
4E\	.	1c	.	2G/	-mi-
8D/L	.	.	.	.	.
8C/J	.	.	.	.	.
2.D/	.	.	.	1F	-ne
.	.	2B\	-mi-	.	.
4D/	-mi-	.	.	.	.
=58-	=58-	=58-	=58-	=58-	=58-
2C,</	-ni	2c,<\	-ni	2.G/	Do-
2C/	in	2c\	in	.	.
.	.	.	.	4A/	.
2BB-/	No-	2F/	no-	2B-\	.
!	!	!	!	!LO:TX:t=P:problem=kreska pseudotaktowa	!
2FF/	-mi-	2A/	-mi-	2c\	.
=59-	=59-	=59-	=59-	=59-	=59-
*	*	*custos:G	*	*	*
1C	-ne	1G	-ne	2c\	.
.	.	.	.	1c	.
!	!	!LO:LB:g=original	!	!	!
2.GG/	Do-	2.G/	Do-	.	.
!	!	!	!	!LO:TX:t=P:problem=kreska pseudotaktowa	!
!	!	!	!	!LO:TX:t=P:problem=♯ below	!
!	!	!	!	!LO:N:acc=#	!
.	.	.	.	2Bn\	mi-
4GG/	-mi-	4G/	-mi-	.	.
=60-	=60-	=60-	=60-	=60-	=60-
!LO:SIC:v:l:s=-ni	!	!	!	!	!
1C	-ne	0G	-ni	2c\	-ni
.	.	.	.	2.G/	Do-
2.C/	Do-	.	.	.	.
.	.	.	.	4F/	.
.	.	.	.	4E/	.
*custos:AA	*	*	*	*	*
4BB-/	.	.	.	4D/	.
!LO:LB:g=original	!	!	!	!	!
=61-	=61-	=61-	=61-	=61-	=61-
*	*	*	*	*lig	*
*	*	*	*ij	*	*
2.AA/	.	2.c\	Do-	1E	.
4GG/	.	4B-y\	.	.	.
1.FF	.	4A/	.	1.F	.
.	.	4G/	.	.	.
.	.	1A\	.	.	.
*	*	*	*	*Xlig	*
=62-	=62-	=62-	=62-	=62-	=62-
.	.	.	.	.	.
2FF/	-mi-	2A/	-mi-	2F/	-mi-
1C;;l	-ni	1G;;l	-ni	1E;;l	-ni.
*	*	*	*Xij	*	*
*clefF4	*	*	*	*	*
=63-	=63-	=63-	=63-	=63-	=63-
*M2/1	*	*M2/1	*	*M2/1	*
*met(C|)	*	*met(C|)	*	*met(C|)	*
1r	.	1C	O-	00r	.
1GG	O-	2D/	-ſan-	.	.
.	.	2E/	-na	.	.
=64-	=64-	=64-	=64-	=64-	=64-
2AA/	-ſan-	2F/	in	.	.
!LO:TX:t=P:problem=♯ below	!	!	!	!	!
!LO:N:acc=#	!	!	!	!	!
2BBn/	-na	2D/	ex-	.	.
1.C	in	4E/	-cel-	.	.
.	.	4D/	.	.	.
.	.	4C/	.	.	.
.	.	4D/	.	.	.
=65-	=65-	=65-	=65-	=65-	=65-
.	.	4E/	.	1rA	.
.	.	4F/	.	.	.
2BB-y/	ex-	2.G/	.	.	.
*lig	*	*	*	*	*
1AA	-cel-	.	.	1C	O-
.	.	8F/L	.	.	.
.	.	8E/J	.	.	.
.	.	2F/	.	.	.
=66-	=66-	=66-	=66-	=66-	=66-
1GG	.	2G,</	-ſis	2D/	-ſan-
!	!	!	!	!LO:TX:t=P:problem=kreska pseudotaktowa	!
.	.	2G/	O-	2E/	-na
*Xlig	*	*	*	*	*
*custos:C	*	*	*	*	*
1FF	-sis	2.c\	-ſan-	1.F	in
*	*	*custos:A	*	*	*
.	.	4B-\	-na	.	.
!LO:LB:g=original	!	!LO:LB:g=original	!	!	!
=67-	=67-	=67-	=67-	=67-	=67-
0rD	.	2A/	in	.	.
!	!	!	!	!LO:TX:t=P:problem=kreska pseudotaktowa	!
.	.	2G/	ex-	2E/	ex-
.	.	(<2A/	-cel-	1D	-cel-
.	.	2F/)	.	.	.
=68-	=68-	=68-	=68-	=68-	=68-
2rBB	.	1G	-sis	2C,</	-ſis
!	!	!	!	!LO:TX:t=P:problem=kreska pseudotaktowa	!
2C/	O-	.	.	2c\	O-
2D/	-san-	1r	.	2B-y\	-san-
!	!	!	!	!LO:TX:t=P:problem=kreska pseudotaktowa	!
2E\	-na	.	.	2G/	-na
=69-	=69-	=69-	=69-	=69-	=69-
1.F	in	1c	in	1.A	in
.	.	2c\	ex-	.	.
2E\	ex-	2.c\	-cel-	2G/	ex-
=70-	=70-	=70-	=70-	=70-	=70-
1D	-cel-	.	.	1.F	-cel-
.	.	8B-\L	.	.	.
.	.	8A\J	.	.	.
.	.	2B-\	.	.	.
0C	-ſis	0c	-ſis	.	.
.	.	.	.	4E/	.
!	!	!	!	!LO:TX:t=P:problem=kreska pseudotaktowa	!
.	.	.	.	4D/	.
=71-	=71-	=71-	=71-	=71-	=71-
.	.	.	.	4E/	.
.	.	.	.	2F/	.
*	*	*	*	*custos:F	*
!	!	!	!	!LO:TX:t=P:problem=kreska pseudotaktowa	!
.	.	.	.	4E/	.
!	!	!	!	!LO:LB:g=original	!
1FF	O-	2r	.	2F,</	-ſis
.	.	2c\	O-	1F/	O-
=72-	=72-	=72-	=72-	=72-	=72-
2BB-/	-san-	2B-\	-san-	.	.
2C/	-na	2G/	-na	1c	-ſan-
1.FF	in	2F/	in	.	.
!	!	!	!	!LO:TX:t=P:problem=kreska pseudotaktowa	!
.	.	2C/	ex-	2c\	-na
=73-	=73-	=73-	=73-	=73-	=73-
.	.	2.F/	-cel-	2A/	in
2FF/	ex-	.	.	2A/	ex-
*	*	*custos:D	*	*	*
.	.	4E/	.	.	.
!	!	!LO:LB:g=original	!	!	!
0GG	-cel-	0D	.	0G	-cel-
=74-	=74-	=74-	=74-	=74-	=74-
.	.	.	.	.	.
2C,</	-ſis	2E/	-ſis	2G,</	-sis
*	*ij	*	*	*	*
1C/	in	1G/	in	1E/	in
=75-	=75-	=75-	=75-	=75-	=75-
.	.	.	.	.	.
!	!	!	!	!LO:TX:t=P:problem=kreska pseudotaktowa	!
2C/	ex-	2G/	ex-	2E/	ex-
*	*	*	*	*lig	*
2.AA/	-cel-	0A	-cel-	1E	-cel-
4GG/	.	.	.	.	.
=76-	=76-	=76-	=76-	=76-	=76-
1FF	.	.	.	1F	.
*	*	*	*	*Xlig	*
1C;;l	-ſis	1G;;l	-sis.	1E;;l	-sis.
*	*Xij	*	*	*	*
=-	=-	=-	=-	=-	=-
*-	*-	*-	*-	*-	*-
!!!system-decoration: [(s1,s2,s3)]
!!!RDF**kern: l = terminal long
!!!RDF**kern: > = above
!!!RDF**kern: < = below
!!!EED: Antoni Szymański
!!!EEV: 2021-03-22
!!!ENC: Andrzej Kubiczek
!!!END: 2021-03-09
